flaticon/technology/charger-1.svg

<svg xmlns="http://www.w3.org/2000/svg" width="32" height="32" viewBox="0 0 24 24">
    <path d="M13.832031 4.066406L15.574219 5.808594 17.027344 4.359375 15.285156 2.613281zM15.574219 4.648438L14.992188 4.066406 15.285156 3.777344 15.863281 4.359375zM19.640625 6.972656L18.1875 8.425781 19.933594 10.167969 21.386719 8.714844zM19.351562 8.425781L19.640625 8.132812 20.222656 8.714844 19.933594 9.007812zM19.351562 8.425781"/>
    <path d="M 23.128906 10.457031 L 24 9.585938 L 14.414062 0 L 13.542969 0.871094 L 13.25 0.582031 C 13.089844 0.421875 12.828125 0.421875 12.667969 0.582031 C 12.507812 0.742188 12.507812 1 12.667969 1.160156 L 12.960938 1.453125 L 11.796875 2.617188 C 11.140625 1.984375 10.097656 1.992188 9.453125 2.636719 L 6.296875 5.789062 C 5.644531 6.441406 5.644531 7.503906 6.296875 8.15625 L 9.765625 11.621094 L 4.824219 16.558594 L 5.261719 16.996094 L 0.359375 21.894531 C -0.121094 22.375 -0.121094 23.15625 0.359375 23.640625 C 0.59375 23.871094 0.902344 24 1.234375 24 C 1.5625 24 1.871094 23.871094 2.105469 23.640625 L 7.003906 18.738281 L 7.441406 19.175781 L 12.378906 14.234375 L 15.84375 17.703125 C 16.160156 18.015625 16.582031 18.191406 17.027344 18.191406 C 17.472656 18.191406 17.894531 18.015625 18.210938 17.703125 L 21.363281 14.546875 C 21.679688 14.230469 21.855469 13.8125 21.855469 13.363281 C 21.855469 12.925781 21.6875 12.515625 21.382812 12.203125 L 22.546875 11.039062 L 22.835938 11.332031 C 22.917969 11.410156 23.023438 11.449219 23.128906 11.449219 C 23.234375 11.449219 23.339844 11.410156 23.417969 11.332031 C 23.578125 11.167969 23.578125 10.910156 23.417969 10.75 Z M 1.523438 23.058594 C 1.367188 23.210938 1.097656 23.214844 0.941406 23.058594 C 0.78125 22.898438 0.78125 22.636719 0.941406 22.476562 L 5.84375 17.578125 L 6.421875 18.15625 Z M 7.441406 18.011719 L 5.988281 16.558594 L 10.34375 12.203125 L 11.628906 13.484375 L 11.796875 13.65625 Z M 20.785156 13.964844 L 17.628906 17.121094 C 17.308594 17.441406 16.746094 17.441406 16.425781 17.121094 L 6.878906 7.574219 C 6.546875 7.242188 6.546875 6.703125 6.878906 6.371094 L 10.035156 3.214844 C 10.199219 3.050781 10.417969 2.96875 10.636719 2.96875 C 10.855469 2.96875 11.070312 3.050781 11.238281 3.214844 L 20.785156 12.761719 C 20.945312 12.921875 21.035156 13.136719 21.035156 13.363281 C 21.03125 13.589844 20.945312 13.804688 20.785156 13.964844 Z M 22.257812 10.167969 L 20.804688 11.621094 L 16.589844 7.410156 L 12.378906 3.195312 L 14.414062 1.160156 L 14.703125 1.453125 L 12.960938 3.195312 L 13.539062 3.777344 L 15.285156 2.035156 L 21.964844 8.714844 L 20.222656 10.457031 L 20.804688 11.039062 L 22.546875 9.296875 L 22.835938 9.585938 Z M 22.257812 10.167969"/>
</svg>

<svg xmlns="http://www.w3.org/2000/svg" width="32" height="32" viewBox="0 0 24 24">
    <path d="M13.832 4.066l1.742 1.743 1.453-1.45-1.742-1.746zm1.742.582l-.582-.582.293-.289.578.582zm0 0M19.64 6.973l-1.453 1.453 1.747 1.742 1.453-1.453zm-.288 1.453l.289-.293.582.582-.29.293zm0 0"/>
    <path d="M23.129 10.457L24 9.586 14.414 0l-.871.871-.293-.289a.413.413 0 0 0-.582 0 .408.408 0 0 0 0 .578l.293.293-1.164 1.164a1.673 1.673 0 0 0-2.344.02L6.297 5.789a1.676 1.676 0 0 0 0 2.367l3.469 3.465-4.942 4.938.438.437-4.903 4.899c-.48.48-.48 1.261 0 1.746a1.239 1.239 0 0 0 1.746 0l4.899-4.903.437.438 4.938-4.942 3.465 3.47a1.68 1.68 0 0 0 2.367 0l3.152-3.157a1.66 1.66 0 0 0 .02-2.344l1.164-1.164.289.293a.424.424 0 0 0 .582 0 .413.413 0 0 0 0-.582zM1.523 23.059a.424.424 0 0 1-.582 0 .413.413 0 0 1 0-.582l4.903-4.899.578.578zm5.918-5.047l-1.453-1.453 4.356-4.356 1.285 1.281.168.172zm13.344-4.047L17.63 17.12a.873.873 0 0 1-1.203 0L6.879 7.574a.851.851 0 0 1 0-1.203l3.156-3.156a.855.855 0 0 1 1.203 0l9.547 9.547a.848.848 0 0 1 0 1.203zm1.473-3.797l-1.453 1.453-4.215-4.21-4.211-4.216 2.035-2.035.29.293-1.743 1.742.578.582 1.746-1.742 6.68 6.68-1.742 1.742.582.582 1.742-1.742.289.289zm0 0"/>
</svg>
